X:304
%%etbk:tnset id:94,pos:3,rep:3x,ant:
%%etbk:wsite http://www.thesession.org/tunes/display/1160
%%etbk:pldat 2016-07-21T19:25,2014-05-07T16:22,2014-04-30T16:34,2014-03-21T16:30,2013-11-06T17:40,2013-11-04T18:28,2013-05-07T18:26,2013-05-01T16:05
T: Lost And Found
Z: Piano Box Version by Martin Fleischmann
H: Created 2013-02-19 /  Last Modified 2013-02-19
M: 6/8
L: 1/8
R: jig
K: Gmaj
|: "G"!1!G!2!G!1!G !4!d!1!GG | !5!e!4!d!3!B !4!d!3!B!2!A | !1!G2G !2!de!5!g | "D"!3!ed!1!B {e}!2!d!1!B!2!A |
"G"!1!G!2!G!1!G !4!d!1!GG | !3!ed!1!B !2!def | !5!gfe !2!d!1!B!2!A |1 "D"!1!B!3!ee !2!d!1!B!2!A:|2 "D"!1!B!3!ee !2!d!1!B!2!d:|
|: !5!"G"g2!3!g !5!b!3!g!1!e | "D"!2!fff !4!a!2!f!1!d | "G"!3!g!2!g!3!g !5!b!3!g!1!e | !3!e!2!d!1!B !1!G!2!B!3!d |
"G"!5!g2!3!g !5!b!3!g!1!e | "D"!2!fff !4!aga | "G"!5!bag !4!agf | !1!e!4!f!5!g !3!e!2!d!1!B:|


